X: 9
T: Shandon Bells
I: Shandon BellsJ-25Djig
M: 6/8
R: jig
K: D
B| "D"AFD DFA| ded cBA| "Em"BGE EFA| "A7"B2 A ABc|
   "D"AFD DFA| ded cBA| "G"Bcd "A7"ecA|1 "D"d3 dc :|2 "D"d3 d2|]
|:\
g| "D"f2 (d d)ed| faa afd| "A"cAA eAA| "A7"cBc efg|
   "D"f2 (d d)ed| faa afd| "G"Bcd "A7"ecA| "D"d3 d2:|
%%text Roaring Jelly  J-25
%%vskip .2cm
